la/creative-commons-share.svg

<svg xmlns="http://www.w3.org/2000/svg" viewBox="0 0 32 32" height="1em" width="1em">
  <path d="M16 3C8.832 3 3 8.832 3 16s5.832 13 13 13 13-5.832 13-13S23.168 3 16 3zm0 2c6.065 0 11 4.935 11 11s-4.935 11-11 11S5 22.065 5 16 9.935 5 16 5zm-6 4v10h4v4h8V13h-4V9h-8zm2 2h4v2h-2v4h-2v-6zm4 4h4v6h-4v-6z"/>
</svg>

<svg xmlns="http://www.w3.org/2000/svg" viewBox="0 0 32 32" height="1em" width="1em">
  <path d="M 16 3 C 8.832 3 3 8.832 3 16 C 3 23.168 8.832 29 16 29 C 23.168 29 29 23.168 29 16 C 29 8.832 23.168 3 16 3 z M 16 5 C 22.065 5 27 9.935 27 16 C 27 22.065 22.065 27 16 27 C 9.935 27 5 22.065 5 16 C 5 9.935 9.935 5 16 5 z M 10 9 L 10 19 L 14 19 L 14 23 L 22 23 L 22 13 L 18 13 L 18 9 L 10 9 z M 12 11 L 16 11 L 16 13 L 14 13 L 14 17 L 12 17 L 12 11 z M 16 15 L 18 15 L 20 15 L 20 21 L 16 21 L 16 19 L 16 15 z"/>
</svg>
